images/problem-sqr/circle-work.svg

<?xml version="1.0" encoding="UTF-8" standalone="no"?>
<svg width="100px" height="100px" viewBox="0 0 100 100" version="1.1" xmlns="http://www.w3.org/2000/svg" xmlns:xlink="http://www.w3.org/1999/xlink" xmlns:sketch="http://www.bohemiancoding.com/sketch/ns">
    <!-- Generator: Sketch 3.0.4 (8054) - http://www.bohemiancoding.com/sketch -->
    <title>work</title>
    <desc>Created with Sketch.</desc>
    <defs></defs>
    <g id="Page-1" stroke="none" stroke-width="1" fill="none" fill-rule="evenodd" sketch:type="MSPage">
        <g id="square" sketch:type="MSLayerGroup" transform="translate(-59.000000, -84.000000)">
            <g id="Group" transform="translate(41.000000, 84.000000)" sketch:type="MSShapeGroup">
                <g id="work" transform="translate(18.000000, 0.000000)">
                    <circle id="Oval-6" fill="#9FAF90" cx="50" cy="50" r="50"></circle>
                    <g id="Group-2" transform="translate(22.522523, 22.522523)" fill="#FFFFFF">
                        <ellipse id="Oval" cx="41.6841779" cy="6.77426802" rx="6.77426802" ry="6.77426802"></ellipse>
                        <path d="M27.2384572,42.7349662 L27.2384572,41.0627815 C27.2384572,39.7100225 27.8982545,38.4026464 28.9804617,37.5682995 L28.9804617,31.8500563 L22.7263514,31.8500563 C20.3088401,31.8500563 18.3661036,29.9404842 18.3661036,27.526464 C18.3661036,27.131982 18.5441441,26.8055743 18.5441441,26.4407658 L18.5441441,24.8925113 L19.2720158,24.8925113 C20.0749437,23.7317568 21.3212275,23.1522523 22.7263514,23.1522523 L28.4585586,23.1522523 C28.5213964,22.8625 28.6907095,22.7664977 28.6907095,22.5360923 L28.6907095,7.01863739 C28.6907095,5.72347973 27.495045,4.59588964 26.2016329,4.59588964 L6.88248874,4.59588964 C5.58733108,4.59588964 4.62556306,5.72347973 4.62556306,7.01863739 L4.62556306,22.5378378 C4.62556306,23.8329955 5.58733108,24.8942568 6.88248874,24.8942568 L14.7738739,24.8942568 L14.7738739,26.9225225 L12.1207207,26.9225225 C10.9564752,26.9225225 10.0121622,27.7917793 10.0121622,29.242286 L0.991441441,29.242286 C0.390990991,29.242286 -0.013963964,29.5791667 -0.013963964,30.1831081 L-0.013963964,32.6372748 C-0.013963964,33.2359797 0.389245495,33.5903153 0.991441441,33.5903153 L4.04431306,33.5903153 L4.04431306,55.6254505 L29.5582207,55.6254505 L29.5582207,45.7005631 C29.5599662,45.7005631 27.2384572,45.2100788 27.2384572,42.7349662 L27.2384572,42.7349662 Z M10.2914414,21.4137387 C8.99802928,21.4137387 7.81458333,20.4903716 7.81458333,19.198705 L7.81458333,10.3612613 C7.81458333,9.0661036 8.99802928,8.07640766 10.2914414,8.07640766 L22.855518,8.07640766 C24.1506757,8.07640766 25.2119369,9.0661036 25.2119369,10.3612613 L25.2119369,19.198705 C25.2119369,20.4903716 24.1524212,21.4137387 22.855518,21.4137387 L10.2914414,21.4137387 L10.2914414,21.4137387 Z" id="Shape"></path>
                        <path d="M45.6708896,14.8332207 L36.7077703,14.8332207 C31.2129505,14.8332207 30.8655968,20.333277 30.8655968,20.333277 C30.8655968,20.333277 30.1324887,24.0407095 29.5215653,24.4666104 C29.3347973,24.5975225 29.1148649,24.6917793 28.858277,24.6917793 L22.7211149,24.6917793 C21.2688626,24.6917793 20.0923986,25.8472973 20.0923986,27.301295 C20.0923986,28.7535473 21.2688626,29.9108108 22.7211149,29.9108108 L28.858277,29.9108108 C29.8113176,29.9108108 30.6526464,29.9125563 30.7661036,29.8863739 L30.7102477,36.2905968 L34.1960023,36.2905968 L34.1960023,22.1206644 C34.1960023,19.2650338 36.034009,15.9939752 38.9193131,15.9939752 L49.606982,15.9939752 C48.5439752,15.122973 47.1667793,14.8332207 45.6708896,14.8332207 L45.6708896,14.8332207 Z" id="Shape"></path>
                        <path d="M52.4364302,43.7368806 C54.3704392,43.7368806 55.9431306,42.1676802 55.9431306,40.2301802 L55.9431306,22.2358671 C55.9431306,20.0697072 54.1086149,18.222973 51.9442005,18.222973 L39.7990428,18.222973 C37.6328829,18.222973 35.9397523,20.0697072 35.9397523,22.2358671 L35.9397523,38.2298423 L32.0246059,38.2298423 C30.5199887,38.2298423 29.270214,39.3871059 29.270214,40.891723 L29.270214,41.8796734 C29.270214,42.9042793 30.1010698,43.7333896 31.1256757,43.7333896 L39.4202703,43.7333896 L39.4202703,46.0531532 L38.0919482,46.0531532 C38.0919482,46.0531532 34.7807432,46.1317005 34.7807432,49.2107545 L34.7807432,53.6268581 C34.7807432,54.623536 35.5243243,55.4351914 36.5262387,55.4351914 C37.5264077,55.4351914 38.3083896,54.6165541 38.3083896,53.6181306 L38.2804617,49.5336712 L44.3478041,49.5336712 L44.3478041,53.6268581 C44.3478041,54.623536 45.2292793,55.4351914 46.2311937,55.4351914 C47.2348536,55.4351914 48.1163288,54.623536 48.1163288,53.6268581 L48.1163288,49.2107545 C48.1163288,45.8646396 44.5625,46.0531532 44.5625,46.0531532 L43.1835586,46.0531532 L43.1835586,43.7351351 L52.4364302,43.7351351 L52.4364302,43.7368806 Z" id="Shape"></path>
                    </g>
                </g>
            </g>
        </g>
    </g>
</svg>

<svg width="100" height="100" viewBox="0 0 100 100" xmlns="http://www.w3.org/2000/svg"><title>work</title><desc>Created with Sketch.</desc><g transform="translate(0 0)" fill="none"><circle fill="#9FAF90" cx="50" cy="50" r="50"/><g transform="translate(22.523 22.523)" fill="#fff"><ellipse cx="41.684" cy="6.774" rx="6.774" ry="6.774"/><path d="M27.238 42.735v-1.672c0-1.353.66-2.66 1.742-3.495V31.85h-6.254c-2.417 0-4.36-1.91-4.36-4.324 0-.394.178-.72.178-1.085v-1.547h.728c.803-1.16 2.05-1.74 3.454-1.74h5.733c.06-.29.23-.387.23-.617V7.02c0-1.297-1.195-2.424-2.488-2.424H6.882c-1.295 0-2.256 1.127-2.256 2.423v15.518c0 1.295.96 2.356 2.256 2.356h7.892v2.03H12.12c-1.164 0-2.108.868-2.108 2.318H.992c-.6 0-1.006.337-1.006.94v2.455c0 .6.403.953 1.005.953h3.054v22.035h25.514V45.7c.002 0-2.32-.49-2.32-2.965zM10.29 21.415c-1.292 0-2.475-.925-2.475-2.216v-8.84c0-1.294 1.183-2.284 2.476-2.284h12.566c1.295 0 2.356.99 2.356 2.285v8.84c0 1.29-1.06 2.214-2.356 2.214H10.29zM45.67 14.833H36.71c-5.495 0-5.842 5.5-5.842 5.5s-.734 3.708-1.344 4.134c-.187.13-.407.225-.664.225H22.72c-1.45 0-2.628 1.155-2.628 2.61 0 1.452 1.177 2.61 2.63 2.61h6.136c.953 0 1.795 0 1.908-.026l-.056 6.405h3.486V22.12c0-2.855 1.838-6.126 4.723-6.126h10.687c-1.063-.87-2.44-1.16-3.936-1.16zM52.436 43.737c1.934 0 3.507-1.57 3.507-3.507V22.236c0-2.166-1.834-4.013-4-4.013H39.8c-2.167 0-3.86 1.847-3.86 4.013V38.23h-3.915c-1.505 0-2.755 1.157-2.755 2.662v.988c0 1.024.83 1.853 1.856 1.853h8.294v2.32h-1.328s-3.31.08-3.31 3.158v4.417c0 .997.742 1.808 1.744 1.808 1 0 1.782-.818 1.782-1.817l-.028-4.084h6.068v4.093c0 .997.88 1.808 1.883 1.808 1.005 0 1.886-.81 1.886-1.808V49.21c0-3.345-3.553-3.157-3.553-3.157h-1.38v-2.318h9.253v.002z"/></g></g></svg>
